X: 19
T: Missa Mi mi (Missa Petite camusette) / Credo
N: Derived from Ort1005c-Missa_Mi_mi-Credo-Missa_Petite_camusette.krn
C: Marbrianus de Orto
%%abc-version 2.0
%%abcx-abcm2ps-target-version 5.9.1 (29 Sep 2008)
%%abc-creator hum2abc beta
%%abcx-conversion-date 2019/02/17 07:28:37
%%abc-edited-by Jesse Rodin
%%abc-edited-by Jesse Rodin 8/9/2013
%%abcx-initial-encoding-date 2013/08/09/
%%humdrum-veritas 3656938850
%%humdrum-veritas-data 2121623628
%%linebreak <none>
%%barnumbers 0
L: 1/4
M: 3/1
Q: 1/2=120
%%staves [1 2 3 4]
V: 1 clef=treble
V: 2 clef=treble-8
V: 3 clef=treble-8
V: 4 clef=bass
K: C
[V:1] z12 | 
[V:2] z12 | 
[V:3] z12 | 
[V:4] E,8F,4 | 
[V:1] z12 | 
[V:2] B4c4B4 | 
[V:3] z4z4E4 | 
[V:4] E,4A,,4z4 | 
[V:1] z12 | 
[V:2] A2c3BAG/F/E2D2 | 
[V:3] F4E4C2D2 | 
[V:4] z4A,,4A,,2B,,2 | 
[V:1] z4B4c4 | 
[V:2] G2A4G4^F2 | 
[V:3] E4D2D4C2 | 
[V:4] C,4G,,4A,,4 | 
[V:1] B4G2A2B2A2- | 
[V:2] G4c4B2c2 | 
[V:3] D4E2F2G2A2 | 
[V:4] G,,4z4z4 | 
[V:1] A^G/^F/G2A4E2=F2 | 
[V:2] B4ABcde2d2- | 
[V:3] E2E2FEA6- | 
[V:4] z4A,,2A,,2C,2D,2 | 
[V:1] G4A4G2F2 | 
[V:2] d2c4e4f2- | 
[V:3] A2G2c6A2- | 
[V:4] E,4A,,4C,2D,2 | 
[V:1] z2G2A4G4- | 
[V:2] f2e4d2e4 | 
[V:3] AGc4A2B4 | 
[V:4] E,4F,4E,4 | 
[V:1] G4B2B2B2B2 | 
[V:2] B2c2d2d2e4- | 
[V:3] E4z4z4 | 
[V:4] z4G,2G,2E,2E,2 | 
[V:1] c4B2A2^G4 | 
[V:2] e4d3cB4 | 
[V:3] C2C2D2D2E4 | 
[V:4] A,,4z4z4 | 
[V:1] A12- | 
[V:2] A4e4f4 | 
[V:3] F4E2A4F2 | 
[V:4] D,2D,2A,,4D,4 | 
[V:1] A4z4z4 | 
[V:2] e4c2d2e3d | 
[V:3] c4A2B2G4 | 
[V:4] C,2A,,4G,,2C,3D, | 
[V:1] z4z4D2D2 | 
[V:2] cBB4A2B4 | 
[V:3] z4E2E2G4 | 
[V:4] E,4C,4B,,4 | 
[V:1] E3D/C/B,2D4^C2 | 
[V:2] c2A2B2A2B2G2 | 
[V:3] A4G2F2E4 | 
[V:4] A,,4E,2F,2G,4 | 
[V:1] D4E2F2G4 | 
[V:2] F2A2B2d2e4- | 
[V:3] D4z2A2B2c2 | 
[V:4] A,4G,2F,2E,4 | 
[V:1] A4G2F2E4 | 
[V:2] e4e2d2c2A2 | 
[V:3] A2c4A3Bc2 | 
[V:4] z2A,,2C,2D,2A,,4 | 
[V:1] F2E2G4A4 | 
[V:2] d2c2d4c4 | 
[V:3] d2A2B4A4 | 
[V:4] z4z4F,4 | 
[V:1] A4B2B2c4 | 
[V:2] z4z4e4 | 
[V:3] d8c4 | 
[V:4] D,2D,2B,,4A,,4 | 
[V:1] A4z2B2c2B2 | 
[V:2] f4e2e2e2d2 | 
[V:3] d4B2G4G2 | 
[V:4] D,4E,4C,2G,,2 | 
[V:1] c2A2c2B4A2- | 
[V:2] c2d2e4d2d2- | 
[V:3] E2F2G4z2F2 | 
[V:4] A,,2D,2C,2E,2G,2D,2 | 
[V:1] AGG4^F2G4 | 
[V:2] d2c2d4z2B2 | 
[V:3] G4A4G3F | 
[V:4] E,4D,4G,,4 | 
[V:1] z12 | 
[V:2] c2d2e4d4 | 
[V:3] E2D2G2A2B4 | 
[V:4] A,,2B,,2C,4G,,2G,2 | 
[V:1] E2F2G4E4 | 
[V:2] c2A2e4z4 | 
[V:3] c4B4c2A2 | 
[V:4] A,4E,4A,,4 | 
[V:1] G4A4z4 | 
[V:2] e4f4e4 | 
[V:3] B3cd4G4- | 
[V:4] E,4D,4C,4 | 
[V:1] B4c4B4 | 
[V:2] d4c2f2d2e2 | 
[V:3] G4A4z2B2 | 
[V:4] G,4z2F,2G,2E,2 | 
[V:1] z2B2B2A2G2A2 | 
[V:2] c2B2z2d2e2f2 | 
[V:3] A2d2G2A2c2d2 | 
[V:4] F,2G,2E,2F,2E,2D,2 | 
[V:1] c2B3AA4^G2 | 
[V:2] g3fd4e4 | 
[V:3] e2d3cA2B4 | 
[V:4] C,2G,4F,2E,4 | 
[V:1] A4z4z4 | 
[V:2] c2A4F2E2G2 | 
[V:3] A4z4G4 | 
[V:4] A,,4D,4C,2E,2 | 
[V:1] z12 | 
[V:2] A2d4c4B2- | 
[V:3] F2A3GG4^F2 | 
[V:4] D,4F,2E,2D,4 | 
[V:1] D4C2E3DD2- | 
[V:2] B2G2c3BA2G2 | 
[V:3] G2B2A2G3FD2 | 
[V:4] G,,4A,,2C,4B,,2 | 
[V:1] D2^C2D4z2D2 | 
[V:2] A4z4z4 | 
[V:3] E4D2G2F2G2 | 
[V:4] A,,4z4z4 | 
[V:1] C2E2D2C2B,4 | 
[V:2] z4z4z2G2 | 
[V:3] A3EFGA4G2 | 
[V:4] z4z4z2E,2 | 
[V:1] z12 | 
[V:2] F2A2G2F2E2A2- | 
[V:3] A4z4c4 | 
[V:4] D,2F,2E,2D,2C,2A,,2 | 
[V:1] z4z2E2F4 | 
[V:2] A2^G2A2=G2FDd2- | 
[V:3] d4c4A4 | 
[V:4] B,,4A,,2C,2D,2F,2 | 
[V:1] G4A4z2A2 | 
[V:2] d2^c2d4d2A2- | 
[V:3] z4z2d2B2c2 | 
[V:4] E,4D,4G,2F,2 | 
[V:1] F2G2A2G2A3G | 
[V:2] A2G2c2B2A4 | 
[V:3] d2B2z4c4 | 
[V:4] D,2E,2A,,2E,2z2F,2 | 
[V:1] FEE4D2E4 | 
[V:2] z4z4G2G2 | 
[V:3] d2B4A2B4 | 
[V:4] D,2E,2F,4E,4 | 
[V:1] z12 | 
[V:2] G2A2G2E2F2D2 | 
[V:3] c2c2c4d4 | 
[V:4] C,8B,,4 | 
[V:1] G2A2B4c4 | 
[V:2] E2F2G4A4 | 
[V:3] c4B2G4F2 | 
[V:4] C,2A,,2E,4z4 | 
[V:1] B4G2z2A2A2 | 
[V:2] z4e2e2d2c2 | 
[V:3] G4z4z4 | 
[V:4] E,2E,2E,2C,2D,2A,,2 | 
[V:1] G2A2B4A4 | 
[V:2] d4e2d4d2- | 
[V:3] G2F2E2G2F2D2 | 
[V:4] z4z4D,2D,2 | 
[V:1] B4c4c4 | 
[V:2] d2DEFGA2G2A2- | 
[V:3] G4A2F2E4 | 
[V:4] G,,2G,,2F,,4C,4 | 
[V:1] d4c4A2B2 | 
[V:2] A2^G2A4z4 | 
[V:3] D4E2F4E2 | 
[V:4] B,,4A,,4D,2G,2 | 
[V:1] c3B/A/G4c4 | 
[V:2] ABcde4e2e2- | 
[V:3] A4B2c4A2 | 
[V:4] F,2F,2E,4A,,4 | 
[V:1] B2A4^G2A4 | 
[V:2] ecd2e4c4 | 
[V:3] G2A2B4A4 | 
[V:4] E,2F,2E,4z2F,2 | 
[V:1] A4A2A2A2AA | 
[V:2] z2f2f2f2z2f2 | 
[V:3] c2c2d2z2c2cc | 
[V:4] F,2F,2z2F,2F,F,F,2- | 
[V:1] A2z2G2G2G2G2 | 
[V:2] ffe2z2e2e2e2 | 
[V:3] c2z2G2B2B2z2 | 
[V:4] F,2C,2E,2E,2z2E,2 | 
[V:1] G2G2B4A2c2- | 
[V:2] z2e2d2d2f3e | 
[V:3] B2B2B2d4c2 | 
[V:4] E,2E,2G,4F,4- | 
[V:1] c2BAG4z2A2- | 
[V:2] c2d2e4c4 | 
[V:3] A4B4A4 | 
[V:4] F,4E,4F,3E, | 
[V:1] AGF2E2D2C2B,2 | 
[V:2] d4c2B2G2d2- | 
[V:3] F2A4D2E2G2 | 
[V:4] D,4A,,2B,,2C,2G,,2 | 
[V:1] A,4G,2C2B,A,D2 | 
[V:2] d2d2e2E2F2G2 | 
[V:3] F4E4D4 | 
[V:4] D,4z2C,2D,2B,,2 | 
[V:1] z2C2D2F2EDG2 | 
[V:2] A8z2G2 | 
[V:3] E4F4G2E2 | 
[V:4] A,,4D,2D,2C,B,,C,2 | 
[V:1] z2A2G2c2B2A2- | 
[V:2] d2e4e4d2 | 
[V:3] G2c3BAGG2A2 | 
[V:4] B,,2A,,2C,3D,E,2F,2 | 
[V:1] A2^G2A8 ||  
[V:2] e4e8 ||  
[V:3] B4A8 ||  
[V:4] E,4A,,8 ||  
[V:1]  [K:C] [K:clef=treble][M:2/1]z8 | 
[V:2]  [K:C] [K:clef=treble-8][M:2/1]z8 | 
[V:3]  [K:C] [K:clef=treble-8][M:2/1]z8 | 
[V:4]  [K:C] [K:clef=bass][M:2/1]E,4F,4 | 
[V:1] z8 | 
[V:2] z8 | 
[V:3] E4F4 | 
[V:4] G,4A,4 | 
[V:1] z8 | 
[V:2] z8 | 
[V:3] G4G4 | 
[V:4] B,4B,4 | 
[V:1] z8 | 
[V:2] B8 | 
[V:3] G4G4 | 
[V:4] E,8 | 
[V:1] E4F4 | 
[V:2] c4c4- | 
[V:3] A6GF | 
[V:4] z8 | 
[V:1] G4A4 | 
[V:2] c4d4- | 
[V:3] E4D4 | 
[V:4] z8 | 
[V:1] B8 | 
[V:2] d4e4- | 
[V:3] G8 | 
[V:4] z8 | 
[V:1] c8 | 
[V:2] e4f4 | 
[V:3] A8 | 
[V:4] z4F,4 | 
[V:1] B8 | 
[V:2] d4e2e2- | 
[V:3] z8 | 
[V:4] G,2G,2E,4 | 
[V:1] z4B4 | 
[V:2] e2d2e4 | 
[V:3] A4G2E2- | 
[V:4] F,4E,3F, | 
[V:1] B4A4 | 
[V:2] z8 | 
[V:3] E2G2A2c2- | 
[V:4] G,2E,2F,4 | 
[V:1] G8 | 
[V:2] e4e4 | 
[V:3] c2B2c2B2 | 
[V:4] E,4C,2E,2 | 
[V:1] A8 | 
[V:2] d4c4 | 
[V:3] A4z4 | 
[V:4] F,2D,2F,2A,2 | 
[V:1] B8 | 
[V:2] d8 | 
[V:3] z8 | 
[V:4] G,8 | 
[V:1] z8 | 
[V:2] e8 | 
[V:3] B4c4 | 
[V:4] E,6A,,2 | 
[V:1] z8 | 
[V:2] e4f4 | 
[V:3] B2G2A2B2- | 
[V:4] E,4D,4 | 
[V:1] z8 | 
[V:2] e2c2d4 | 
[V:3] BAA4^G2 | 
[V:4] C,2A,,2B,,4 | 
[V:1] E4F4 | 
[V:2] e4A3B | 
[V:3] A4z2D2 | 
[V:4] A,,4z4 | 
[V:1] E2C2D2E2- | 
[V:2] c4c2B2 | 
[V:3] E2F4G2 | 
[V:4] z8 | 
[V:1] E2D4^C2 | 
[V:2] c2A4A2 | 
[V:3] A2F2E4 | 
[V:4] z4A,,4 | 
[V:1] D8 | 
[V:2] F2G2D2G2- | 
[V:3] D4d4 | 
[V:4] B,,8 | 
[V:1] z8 | 
[V:2] G2E2G4- | 
[V:3] e4c4 | 
[V:4] C,8 | 
[V:1] B8 | 
[V:2] G2D2G4- | 
[V:3] d8 | 
[V:4] B,,4G,,4 | 
[V:1] c8 | 
[V:2] G2^FE^F4 | 
[V:3] c4A4 | 
[V:4] A,,8 | 
[V:1] B8 | 
[V:2] G8 | 
[V:3] d6B2 | 
[V:4] z4G,4 | 
[V:1] G4A4 | 
[V:2] z4c3d | 
[V:3] c4A4 | 
[V:4] E,2C,2F,4 | 
[V:1] B4A4- | 
[V:2] e4c2f2- | 
[V:3] G4z2d2 | 
[V:4] E,4F,2D,2 | 
[V:1] A2GFG4 | 
[V:2] f2d2e4 | 
[V:3] c2A2B4 | 
[V:4] F,4E,4 | 
[V:1] A4G2F2- | 
[V:2] c2f2e2c2 | 
[V:3] A4z2A2- | 
[V:4] F,2D,2E,2F,2 | 
[V:1] F2E4D2 | 
[V:2] d2B2z2A2- | 
[V:3] A2G2A4 | 
[V:4] D,2E,2F,4 | 
[V:1] E8- | 
[V:2] A2G2A4 | 
[V:3] z4E3F | 
[V:4] E,4A,,4 | 
[V:1] E8- | 
[V:2] B2c2A4 | 
[V:3] G2C3DE2- | 
[V:4] G,,2A,,4G,,F,, | 
[V:1] E8 ||  
[V:2] B8 ||  
[V:3] E2B,2E4 ||  
[V:4] E,,8 ||  
[V:1]  [K:C] [K:clef=treble][M:2/1]z8 | 
[V:2]  [K:C] [K:clef=treble-8][M:2/1]d8 | 
[V:3]  [K:C] [K:clef=treble-8][M:2/1]G8 | 
[V:4]  [K:C] [K:clef=bass][M:2/1]z8 | 
[V:1] z8 | 
[V:2] c4B4 | 
[V:3] A4G4 | 
[V:4] z8 | 
[V:1] B,8 | 
[V:2] G8 | 
[V:3] D8 | 
[V:4] G,,8 | 
[V:1] B,4B,4 | 
[V:2] D4D4 | 
[V:3] G4G4 | 
[V:4] G,,4G,,4 | 
[V:1] E8 | 
[V:2] C8 | 
[V:3] c8 | 
[V:4] A,,8 | 
[V:1] z4F4 | 
[V:2] D4A4 | 
[V:3] z4c4 | 
[V:4] A,4F,4 | 
[V:1] F4E4 | 
[V:2] A2A4c2- | 
[V:3] d4c2A2- | 
[V:4] D,4A,,4 | 
[V:1] F2A4^G2 | 
[V:2] c2BAB4 | 
[V:3] A2GFE4 | 
[V:4] z8 | 
[V:1] A4z4 | 
[V:2] A3Bcde2 | 
[V:3] F4A2G2 | 
[V:4] D,2F,4E,2 | 
[V:1] z8 | 
[V:2] f2e2f4 | 
[V:3] A2c4B2 | 
[V:4] D,2C,2D,4 | 
[V:1] G8 | 
[V:2] e8 | 
[V:3] c8 | 
[V:4] C,8 | 
[V:1] A4A4 | 
[V:2] f4d2d2 | 
[V:3] c4A4 | 
[V:4] F,4F,4 | 
[V:1] G4G4 | 
[V:2] e4e4 | 
[V:3] B4c4 | 
[V:4] E,4C,4 | 
[V:1] c8 | 
[V:2] e8 | 
[V:3] c4A4 | 
[V:4] A,,4A,,4 | 
[V:1] B8 | 
[V:2] e8 | 
[V:3] G8 | 
[V:4] E,8 | 
[V:1] B4B4 | 
[V:2] e4d4 | 
[V:3] G4B4 | 
[V:4] E,4G,4 | 
[V:1] A2A2A2A2 | 
[V:2] f2f2f2f2 | 
[V:3] c2c2c2c2 | 
[V:4] F,2F,2F,2F,2 | 
[V:1] G4F2E2- | 
[V:2] e4z4 | 
[V:3] c4d2c2- | 
[V:4] C,4z4 | 
[V:1] E2DCB,4 | 
[V:2] z8 | 
[V:3] c2A4^G2 | 
[V:4] z8 | 
[V:1] A,4z4 | 
[V:2] c2c2c2d2- | 
[V:3] A4z4 | 
[V:4] F,4F,4 | 
[V:1] z4F4 | 
[V:2] d2cBA4 | 
[V:3] B4c4 | 
[V:4] G,4F,4 | 
[V:1] F4G4 | 
[V:2] F2D2E4 | 
[V:3] d4B4 | 
[V:4] D,4z4 | 
[V:1] F4D4 | 
[V:2] z2A2B2G2 | 
[V:3] A4z2B2 | 
[V:4] F,2D,2G,4 | 
[V:1] F4E2F2 | 
[V:2] A3Bc2d2 | 
[V:3] c2d2c2A2 | 
[V:4] F,2D,2A,2G,F, | 
[V:1] G4A4 | 
[V:2] e4c4 | 
[V:3] B4A4 | 
[V:4] E,4A,,3B,, | 
[V:1] z8 | 
[V:2] z8 | 
[V:3] A8 | 
[V:4] C,2D,2C,2D,2- | 
[V:1] z8 | 
[V:2] z8 | 
[V:3] _B8 | 
[V:4] D,2G,,4G,2 | 
[V:1] z8 | 
[V:2] z8 | 
[V:3] A4A4 | 
[V:4] F,2D,2C,2D,2- | 
[V:1] z8 | 
[V:2] z8 | 
[V:3] F2G2A2c2- | 
[V:4] D,2C,3B,,A,,G,, | 
[V:1] z8 | 
[V:2] z8 | 
[V:3] cBAG^F4 | 
[V:4] F,,2G,,2A,,4 | 
[V:1] [M:3/1]D8E4- | 
[V:2] [M:3/1]B8G4 | 
[V:3] [M:3/1]G12 | 
[V:4] [M:3/1]G,,8C,4 | 
[V:1] E4F8 | 
[V:2] A8d4 | 
[V:3] z12 | 
[V:4] A,,4D,8 | 
[V:1] G4A4G4 | 
[V:2] B4c8 | 
[V:3] z12 | 
[V:4] G,4F,4E,4 | 
[V:1] c8B4 | 
[V:2] e4d8 | 
[V:3] z12 | 
[V:4] C,4G,8 | 
[V:1] [M:2/1]c4z4 | 
[V:2] [M:2/1]c4G4 | 
[V:3] z8 | 
[V:4] [M:2/1]C,8 | 
[V:1] C8- | 
[V:2] A8- | 
[V:3] E8 | 
[V:4] A,,8 | 
[V:1] C8 | 
[V:2] A8- | 
[V:3] F8 | 
[V:4] F,,8 | 
[V:1] C8 | 
[V:2] A8 | 
[V:3] E8 | 
[V:4] A,,8 | 
[V:1] C4C2C2 | 
[V:2] A4A2A2 | 
[V:3] z4E4 | 
[V:4] A,,4A,,4- | 
[V:1] C4z2C2- | 
[V:2] A6G2- | 
[V:3] E2E2E4 | 
[V:4] A,,2A,,2A,,2C,2 | 
[V:1] C2B,3CD2- | 
[V:2] G2G6 | 
[V:3] D8 | 
[V:4] G,,4B,,4 | 
[V:1] D2^CB,C4 | 
[V:2] A4A4 | 
[V:3] E8 | 
[V:4] A,,8 | 
[V:1] D8 | 
[V:2] A4F2A2 | 
[V:3] D8 | 
[V:4] D,4A,4 | 
[V:1] E4F4 | 
[V:2] B2c4BA | 
[V:3] z8 | 
[V:4] G,2A,4G,F, | 
[V:1] G6G2 | 
[V:2] B4z4 | 
[V:3] z4d4 | 
[V:4] E,4G,4 | 
[V:1] G4G4 | 
[V:2] e4e2e2 | 
[V:3] c2c2B4 | 
[V:4] C,2C,2E,4 | 
[V:1] G4G4 | 
[V:2] e2e2e2e2 | 
[V:3] c2B2c4 | 
[V:4] E,4C,4 | 
[V:1] G8 | 
[V:2] e4z4 | 
[V:3] B4e4 | 
[V:4] E,6C,2 | 
[V:1] z8 | 
[V:2] z4d4 | 
[V:3] d2c2B4 | 
[V:4] G,2A,4G,2 | 
[V:1] z8 | 
[V:2] c2B2A4 | 
[V:3] z8 | 
[V:4] A,2G,4^F,2 | 
[V:1] G4F2E2 | 
[V:2] G2FED2C2 | 
[V:3] B3GA2c2- | 
[V:4] G,4z4 | 
[V:1] D4C4 | 
[V:2] G4A2c2 | 
[V:3] c2B2c4 | 
[V:4] z4F,4 | 
[V:1] z8 | 
[V:2] B2c3de2- | 
[V:3] z8 | 
[V:4] G,2A,4G,2- | 
[V:1] z4F4 | 
[V:2] edc4B2 | 
[V:3] z4d4 | 
[V:4] G,2F,E,D,4 | 
[V:1] E2F3GA2 | 
[V:2] c4f4 | 
[V:3] c2A2d3c | 
[V:4] A,3G,F,E,D,2 | 
[V:1] G2A4G2 | 
[V:2] e2d3ce2- | 
[V:3] B2A2B4 | 
[V:4] E,2F,2E,4 | 
[V:1] A4B4 | 
[V:2] e2d2e4- | 
[V:3] z2A4G2 | 
[V:4] F,4E,4 | 
[V:1] c4B4 | 
[V:2] e4e4- | 
[V:3] A4E4 | 
[V:4] A,,2A,4G,2 | 
[V:1] G4A4 | 
[V:2] e2d2f4 | 
[V:3] B4c2d2- | 
[V:4] E,2G,2F,2D,2 | 
[V:1] B4A4 | 
[V:2] z2d2f4 | 
[V:3] d2B2c2d2 | 
[V:4] G,4F,2D,2 | 
[V:1] G2A2B4 | 
[V:2] e4z2d2 | 
[V:3] B2c2d2G2- | 
[V:4] E,2C,2G,4 | 
[V:1] B4A4 | 
[V:2] e2d2f4 | 
[V:3] G2B2c2d2- | 
[V:4] E,2G,2F,4 | 
[V:1] B2c2d3c | 
[V:2] d2c2g3f | 
[V:3] dcA2B2d2- | 
[V:4] G,2A,2G,4 | 
[V:1] BAA4^G2 | 
[V:2] d4e4 | 
[V:3] dcA2B4 | 
[V:4] F,4E,4 | 
[V:1] A4z4 | 
[V:2] z8 | 
[V:3] A4z4 | 
[V:4] z4A,,4 | 
[V:1] z8 | 
[V:2] z4E4 | 
[V:3] z8 | 
[V:4] B,,2D,4C,2 | 
[V:1] z8 | 
[V:2] F2G4^F2 | 
[V:3] z8 | 
[V:4] D,2B,,2A,,4 | 
[V:1] D4E2G2- | 
[V:2] G4z2G2 | 
[V:3] z8 | 
[V:4] G,,2G,4F,E, | 
[V:1] G2^F2G4 | 
[V:2] A4B2B2 | 
[V:3] z8 | 
[V:4] D,4z2G,2 | 
[V:1] z2G2A4 | 
[V:2] c6BA | 
[V:3] z8 | 
[V:4] F,2E,2F,4 | 
[V:1] B2B2c2BA | 
[V:2] G4z2A2 | 
[V:3] z8 | 
[V:4] E,2G,2F,4 | 
[V:1] G4z2A2 | 
[V:2] B2c4BA | 
[V:3] z8 | 
[V:4] E,4F,4 | 
[V:1] _B2A2F2G2 | 
[V:2] G2d4B2 | 
[V:3] z8 | 
[V:4] z2D,4E,2 | 
[V:1] A3GFEE2- | 
[V:2] A2d3cB2- | 
[V:3] z8 | 
[V:4] F,2D,4E,2 | 
[V:1] E2D2E4 | 
[V:2] BAA4^G2 | 
[V:3] A4B4 | 
[V:4] F,4E,4 | 
[V:1] z8 | 
[V:2] A4D4 | 
[V:3] c4d2D2 | 
[V:4] A,,4B,,4 | 
[V:1] z8 | 
[V:2] z8 | 
[V:3] E4F4 | 
[V:4] C,4D,4 | 
[V:1] z8 | 
[V:2] z8 | 
[V:3] G2C2D2E2 | 
[V:4] G,,2A,,2B,,2C,2- | 
[V:1] z8 | 
[V:2] z8 | 
[V:3] C2c3BB2- | 
[V:4] C,D,E,3D,B,,2 | 
[V:1] z4D4 | 
[V:2] z8 | 
[V:3] B2A2B4 | 
[V:4] C,4B,,4 | 
[V:1] E4F4 | 
[V:2] z8 | 
[V:3] G4A4 | 
[V:4] C,2E,2D,4 | 
[V:1] G4z2G2 | 
[V:2] z8 | 
[V:3] B4c4 | 
[V:4] z2G,2F,2E,2 | 
[V:1] F2E2D4 | 
[V:2] z8 | 
[V:3] z2c2B2A2 | 
[V:4] D,2C,2G,2F,2 | 
[V:1] z4F4 | 
[V:2] z8 | 
[V:3] G2c4B2 | 
[V:4] E,2C,2D,4 | 
[V:1] E4E4- | 
[V:2] G4G4 | 
[V:3] c8 | 
[V:4] C,8 | 
[V:1] E4E4 | 
[V:2] A4A4 | 
[V:3] C4C4 | 
[V:4] A,,4A,,4 | 
[V:1] E6C2 | 
[V:2] c4A4 | 
[V:3] C4C4 | 
[V:4] A,,4A,,4 | 
[V:1] D8 | 
[V:2] B8 | 
[V:3] G8 | 
[V:4] G,,8 | 
[V:1] C8 | 
[V:2] A8 | 
[V:3] E8 | 
[V:4] A,,8 | 
[V:1] z4E4 | 
[V:2] B4c4 | 
[V:3] F4G2A2- | 
[V:4] D,4C,4 | 
[V:1] F4E4 | 
[V:2] A2B2c4 | 
[V:3] A2F2G2A2- | 
[V:4] D,4C,4 | 
[V:1] C4D4 | 
[V:2] z2A2_B4 | 
[V:3] A2F4G2- | 
[V:4] F,4_B,,4 | 
[V:1] E4D4 | 
[V:2] G2c2F2A2- | 
[V:3] G2A4F2 | 
[V:4] C,4D,4 | 
[V:1] C4D3E | 
[V:2] AGE2DEFG | 
[V:3] E2A3GFE | 
[V:4] A,,4D,4 | 
[V:1] FGA3GF2 | 
[V:2] A4F4 | 
[V:3] D4z2A2- | 
[V:4] z2F,3E,D,2 | 
[V:1] E2D2G4 | 
[V:2] c2A3Bc2 | 
[V:3] A2F2E4 | 
[V:4] C,2D,4^C,2 | 
[V:1] F4E2F2- | 
[V:2] A2d2B2c2- | 
[V:3] A4G2A2 | 
[V:4] D,4z4 | 
[V:1] FEDCD4 | 
[V:2] cBB4A2 | 
[V:3] E4F4 | 
[V:4] z8 | 
[V:1] E8 | 
[V:2] c4B4 | 
[V:3] E8 | 
[V:4] z8 | 
[V:1] z8 | 
[V:2] G8 | 
[V:3] z8 | 
[V:4] C,6D,2 | 
[V:1] z8 | 
[V:2] z8 | 
[V:3] c4c4 | 
[V:4] E,4A,,4 | 
[V:1] z8 | 
[V:2] c6d2 | 
[V:3] A4A4 | 
[V:4] F,6E,D, | 
[V:1] G4G4 | 
[V:2] e4e4 | 
[V:3] c6B2 | 
[V:4] C,8 | 
[V:1] A4B4 | 
[V:2] f4d4 | 
[V:3] A2F2G4 | 
[V:4] z4B,,4 | 
[V:1] c6BA | 
[V:2] e8- | 
[V:3] z4A4 | 
[V:4] A,,8 | 
[V:1] G8 | 
[V:2] e8 | 
[V:3] B4B4 | 
[V:4] E,8 | 
[V:1] A3GF2E2 | 
[V:2] E4D2E2 | 
[V:3] c4A4 | 
[V:4] A,,4D,2C,2 | 
[V:1] D3CB,2A,2 | 
[V:2] G6E2 | 
[V:3] z2d4c2 | 
[V:4] B,,2G,,2z2C,2 | 
[V:1] G,2G4^F2 | 
[V:2] GABcd4 | 
[V:3] B2G2A4 | 
[V:4] E,4D,4 | 
[V:1] G4z2E2 | 
[V:2] B6AG | 
[V:3] z2G2c4 | 
[V:4] E,8 | 
[V:1] F4G4 | 
[V:2] A4z2G2 | 
[V:3] d4z2c2 | 
[V:4] D,4E,4 | 
[V:1] z2F2G4 | 
[V:2] A3Bc4 | 
[V:3] d4e4 | 
[V:4] D,4C,4 | 
[V:1] A4z2E2 | 
[V:2] c4A2c2- | 
[V:3] z2E2F2G2 | 
[V:4] A,,4D,2C,2 | 
[V:1] E2F2G4 | 
[V:2] c2A2c2B2 | 
[V:3] A4z2G2 | 
[V:4] C,2D,2E,2E,2 | 
[V:1] z2G2A2G2 | 
[V:2] A2d2A2c2 | 
[V:3] c2B2c2e2 | 
[V:4] F,2G,2F,2E,2 | 
[V:1] A2B2c4 | 
[V:2] F2G2A2c2 | 
[V:3] d3cA4 | 
[V:4] z2G,4F,2 | 
[V:1] z2C2D2E2 | 
[V:2] B2A2D2z2 | 
[V:3] G2A4B2 | 
[V:4] G,2F,4G,2 | 
[V:1] F2G2A2B2 | 
[V:2] A2G2F2G2 | 
[V:3] c4d4 | 
[V:4] F,2E,2D,2B,,2 | 
[V:1] c4A2B2- | 
[V:2] A4c2B2 | 
[V:3] e8 | 
[V:4] A,,4A,,2E,2 | 
[V:1] BAA4^G2 | 
[V:2] d4e4 | 
[V:3] A4B4 | 
[V:4] F,4E,4 | 
[V:1] A8 ||  
[V:2] e8 ||  
[V:3] A8 ||  
[V:4] A,,8 ||  
[V:1]  [K:C] [K:clef=treble][M:3/1]z12 | 
[V:2]  [K:C] [K:clef=treble-8][M:3/1]z12 | 
[V:3]  [K:C] [K:clef=treble-8][M:3/1]z12 | 
[V:4]  [K:C] [K:clef=bass][M:3/1]C,8D,4 | 
[V:1] z12 | 
[V:2] c8c4 | 
[V:3] z12 | 
[V:4] F,4E,8 | 
[V:1] z12 | 
[V:2] d4e8 | 
[V:3] G8A4 | 
[V:4] z12 | 
[V:1] G8A4 | 
[V:2] z12 | 
[V:3] B4c8 | 
[V:4] E,8F,4 | 
[V:1] G4A6G2 | 
[V:2] c8B4 | 
[V:3] z12 | 
[V:4] E,4D,8 | 
[V:1] E8z4 | 
[V:2] c4G4A4- | 
[V:3] c8c4 | 
[V:4] C,8F,4- | 
[V:1] z12 | 
[V:2] A4B4A4 | 
[V:3] d8c4- | 
[V:4] F,4G,4A,4 | 
[V:1] G8G4 | 
[V:2] e12- | 
[V:3] c4B8 | 
[V:4] E,12 | 
[V:1] A8G4 | 
[V:2] e4f4e4 | 
[V:3] A4z4z4 | 
[V:4] z12 | 
[V:1] F4E8 | 
[V:2] d8^c4 | 
[V:3] z12 | 
[V:4] z12 | 
[V:1] D8z4 | 
[V:2] d8z4 | 
[V:3] B4B4A4 | 
[V:4] G,4G,4F,4 | 
[V:1] z12 | 
[V:2] z4z4G4 | 
[V:3] B4c8 | 
[V:4] G,4E,8 | 
[V:1] F4F4E4 | 
[V:2] B4A8 | 
[V:3] d8c4 | 
[V:4] D,8z4 | 
[V:1] F4G8 | 
[V:2] D4d6e2 | 
[V:3] d4B8 | 
[V:4] z12 | 
[V:1] A8z4 | 
[V:2] f12 | 
[V:3] c12 | 
[V:4] F,12 | 
[V:1] A8F4 | 
[V:2] f8f4 | 
[V:3] d8D4 | 
[V:4] D,8D,4 | 
[V:1] G4A4c4 | 
[V:2] e4c8 | 
[V:3] E4F8 | 
[V:4] C,4A,,8 | 
[V:1] B4A6G2 | 
[V:2] d8c4- | 
[V:3] G4F4G4- | 
[V:4] G,,4D,4E,4- | 
[V:1] G8^F4 | 
[V:2] c4d8 | 
[V:3] G4A8 | 
[V:4] E,4D,8 | 
[V:1] G8z4 | 
[V:2] d8e4- | 
[V:3] G8G4 | 
[V:4] G,,8C,4- | 
[V:1] z12 | 
[V:2] e4c8 | 
[V:3] A8G4 | 
[V:4] C,4A,,4C,4 | 
[V:1] z12 | 
[V:2] A8z4 | 
[V:3] F4E8 | 
[V:4] D,8C,4 | 
[V:1] z12 | 
[V:2] A6B2c4 | 
[V:3] F4F4E4 | 
[V:4] D,8A,,4- | 
[V:1] z12 | 
[V:2] A4d8 | 
[V:3] F4G8 | 
[V:4] A,,4B,,8 | 
[V:1] E12 | 
[V:2] c8c4 | 
[V:3] A8z4 | 
[V:4] A,,6B,,2C,4 | 
[V:1] F8E4- | 
[V:2] A4F4G4 | 
[V:3] z12 | 
[V:4] D,8C,4 | 
[V:1] E4C8 | 
[V:2] A8A4 | 
[V:3] E8F4 | 
[V:4] A,,8z4 | 
[V:1] C4C4B,4 | 
[V:2] G4A4G4- | 
[V:3] E4F4G4 | 
[V:4] z12 | 
[V:1] C4D8 | 
[V:2] G4A8 | 
[V:3] E4F8 | 
[V:4] z12 | 
[V:1] E8F4 | 
[V:2] A4G4F4 | 
[V:3] E8z4 | 
[V:4] A,,4C,4D,4 | 
[V:1] G4A8 | 
[V:2] c8d4 | 
[V:3] z12 | 
[V:4] E,4F,8 | 
[V:1] G12 | 
[V:2] e12 | 
[V:3] c8c4 | 
[V:4] C,12- | 
[V:1] z12 | 
[V:2] E8E4 | 
[V:3] c6B2c4 | 
[V:4] C,4A,,8 | 
[V:1] z12 | 
[V:2] D8E4 | 
[V:3] d6c2B2A2 | 
[V:4] B,,8C,4 | 
[V:1] z12 | 
[V:2] F4D8 | 
[V:3] A8^G4 | 
[V:4] D,4B,,8 | 
[V:1] z12 | 
[V:2] E12 | 
[V:3] A12 | 
[V:4] A,,12 | 
[V:1] [M:2/1]F8 | 
[V:2] [M:2/1]z4A4 | 
[V:3] [M:2/1]A6F2 | 
[V:4] [M:2/1]D,8 | 
[V:1] E8- | 
[V:2] c8- | 
[V:3] G8 | 
[V:4] C,8 | 
[V:1] E8 | 
[V:2] c4e4 | 
[V:3] A4c4 | 
[V:4] A,,8 | 
[V:1] F8 | 
[V:2] d8 | 
[V:3] B2A2d4- | 
[V:4] D,8 | 
[V:1] G8 | 
[V:2] z4G4 | 
[V:3] d4^c4 | 
[V:4] E,8 | 
[V:1] F8 | 
[V:2] A6B2 | 
[V:3] d8 | 
[V:4] D,8 | 
[V:1] E8 | 
[V:2] c4C4 | 
[V:3] G6A2 | 
[V:4] C,8 | 
[V:1] D8 | 
[V:2] G8 | 
[V:3] B8 | 
[V:4] G,,8 | 
[V:1] D8 | 
[V:2] F4z2f2- | 
[V:3] A4_B3A | 
[V:4] D,8 | 
[V:1] A8 | 
[V:2] f2e2f2e2- | 
[V:3] F2c2d2c2- | 
[V:4] z8 | 
[V:1] _B8 | 
[V:2] e2dcd3e | 
[V:3] c2_BAG4 | 
[V:4] z8 | 
[V:1] A4G2c2- | 
[V:2] f3ed2e2 | 
[V:3] d3cB2A2- | 
[V:4] z8 | 
[V:1] cBA4G2 | 
[V:2] A4B4 | 
[V:3] A2GFE4 | 
[V:4] z4z2E,2 | 
[V:1] A4z2A2- | 
[V:2] A4F4 | 
[V:3] z2c4d2 | 
[V:4] F,3G,A,2D,2 | 
[V:1] AGG2A2G2 | 
[V:2] E2e2d2e2- | 
[V:3] B4z2B2- | 
[V:4] E,4F,2E,2- | 
[V:1] z2G3FF2 | 
[V:2] e2e2d4 | 
[V:3] B2c2A4 | 
[V:4] E,2C,2D,4 | 
[V:1] G2F2z2F2- | 
[V:2] z4A2B2 | 
[V:3] z2A4F2 | 
[V:4] C,2D,4D,2 | 
[V:1] FEE2F2E2 | 
[V:2] c4A2c2- | 
[V:3] G4z2A2- | 
[V:4] C,4D,2C,2 | 
[V:1] z2c3BB2 | 
[V:2] c2A2d4 | 
[V:3] A2F2G4 | 
[V:4] A,,4z2G,,2 | 
[V:1] c2B3AA2- | 
[V:2] c2d4e2 | 
[V:3] C2G4E2 | 
[V:4] A,,2G,,2B,,2C,2 | 
[V:1] AGF2E2A2- | 
[V:2] A4c3B | 
[V:3] F3GA3G | 
[V:4] D,4A,,4 | 
[V:1] AGFED3C | 
[V:2] A4z4 | 
[V:3] FED2z2G2- | 
[V:4] z2D,3C,B,,A,, | 
[V:1] B,2A,4A2- | 
[V:2] d4e2f2 | 
[V:3] G2F2E2DE | 
[V:4] G,,2D,2C,2D,2- | 
[V:1] AGF2E2G2- | 
[V:2] d4z2e2- | 
[V:3] FGA3GE2- | 
[V:4] D,2D,2C,4- | 
[V:1] GFE4D2 | 
[V:2] e2c4B2 | 
[V:3] E2G2F4 | 
[V:4] C,4z2D,2 | 
[V:1] E8- | 
[V:2] c4B4 | 
[V:3] E8- | 
[V:4] C,2A,,4G,,2 | 
[V:1] E8- | 
[V:2] A2c4B2 | 
[V:3] E8- | 
[V:4] A,,4E,,4- | 
[V:1] E8 |]  
[V:2] B8 |]  
[V:3] E8 |]  
[V:4] E,,8 |]  



